X:1
T:James Gibb editions
T:Pange lingua - Bruckner
T:#
%%score [ 1 2 3 4 ]
L:1/8
Q:1/4=96
M:2/2
K:C
V:1 treble nm="Soprano"
V:2 treble nm="Alto"
V:3 treble-8 nm="Tenor"
V:4 bass nm="Bass"
V:1
"^Pange lingua""^Anton Bruckner\n(1824-1896)" E8 | E8 | E8 | E4 z4 | z4 (G4 | A4) A4 | (B4 c4) | %7
w: ~Pan-|ge|lin-|gua|glo\-|* ri-|o\- *|
w: ~Tan-|tum|er-|go|sa\-|* cra-|men\- *|
w: ~Ge-|ni-|to-|ri|ge\-|* ni-|to\- *|
 B4 z4 | A3 A A2 A2 |[M:2/2] (A8 | B4 e4- | e4) d4 | !fermata!e8 | e4 e4 | d4 c4 | d4 f4 | f4 e4 | %17
w: si|cor- po- ris my-|ste\-||* ri-|um|san- gui-|nis- que|pre- ti-|o- si,|
w: tum|ve- ne- re- mur|cer\-||* nu-|i,|et an-|ti- quum|do- cu-|men- tum|
w: que|laus et ju- bi-|la\-||* ti-|o,|sa- lus,|ho- nor,|vir- tus|quo- que|
 z8 | z4 A4- | A4 B4 | G4 G4 | ^F6 F2 | !fermata!^G8 | A4 A4 | _B4 A4 | d4 d4 | f4 !fermata!e4 | %27
w: |quem|* in|mun- di|pre- ti-|um|fru- ctus|ven- tris|ge- ne-|ro- si,|
w: |no\-|* vo|ce- dat|ri- tu-|i:|prae- stet|fi- des|sup- ple-|men- tum|
w: |sit|* et|be- ne-|di- cti-|o,|pro- ce-|den- ti|ab u-|tro- que|
 f4 e4 | d4 c4 | (d4 B3) B | c4 z4 | E4 E4 | E4 E4 | E6 E2 | !fermata!E8 || E8- | E8 | %37
w: rex ef-|fu- dit|gen\- * ti-|um,|rex ef-|fu- dit|gen- ti-|um.|||
w: sen- su-|um de-|fe\- * ctu-|i,|sen- su-|um de-|fe- ctu-|i.|A\-||
w: com- par|sit lau-|da\- * ti-|o,|com- par|sit lau-|da- ti-|o.|||
 !fermata!E8 |] %38
w: |
w: men.|
w: |
V:2
 E8 | E8 | E8 | E4 z4 | E8- | E4 E4 | (G4 A4) | G4 G4- | G3 G F2 F2 |[M:2/2] (E8- | E8 | A4) A4 | %12
w: Pan-|ge|lin-|gua|glo\-|* ri-|o\- *|si cor\-|* po- ris my-|ste\-||* ri-|
w: Tan-|tum|er-|go|sa\-|* cra-|men\- *|tum ve\-|* ne- re- mur|cer\-||* nu-|
w: Ge-|ni-|to-|ri|ge\-|* ni-|to\- *|que laus|* et ju- bi-|la\-||* ti-|
 !fermata!^G8 | =G4 G4 | G4 G4 | G4 A4 | A4 A4 | z8 | E8- | E4 ^D4 | B,4 E4 | (E4 ^D2) D2 | %22
w: um|san- gui-|nis- que|pre- ti-|o- si,||quem|* in|mun- di|pre\- * ti-|
w: i,|et an-|ti- quum|do- cu-|men- tum||no\-|* vo|ce- dat|ri\- * tu-|
w: o,|sa- lus,|ho- nor,|vir- tus|quo- que||sit|* et|be- ne-|di\- * cti-|
 !fermata!E8 | E4 !courtesy!=F4 | F4 F4 | A4 A4 | B4 !fermata!E4 | D4 G4 | (G2 F2) E4 | (A4 G3) G | %30
w: um|fru- ctus|ven- tris|ge- ne-|ro- si,|rex ef-|fu\- * dit|gen\- * ti-|
w: i:|prae- stet|fi- des|sup- ple-|men- tum|sen- su-|um * de-|fe\- * ctu-|
w: o,|pro- ce-|den- ti|ab u-|tro- que|com- par|sit * lau-|da\- * ti-|
 G4 z4 | E4 E4 | E4 E4 | D6 C2 | !fermata!B,8 || (B,8 | A,4 B,2 C2) | !fermata!B,8 |] %38
w: um,|rex ef-|fu- dit|gen- ti-|um.||||
w: i,|sen- su-|um de-|fe- ctu-|i.|A\-||men.|
w: o,|com- par|sit lau-|da- ti-|o.||||
V:3
 z4 (e4 | c4) c4 | (B4 A4) | B4 z4 | (e8 | c4) c4 | (d4 f2 e2) | d4 z4 | z4 d4- | %9
w: Pan\-|* ge|lin\- *|gua|glo\-|* ri-|o\- * *|si|cor\-|
w: Tan\-|* tum|er\- *|go|sa\-|* cra-|men\- * *|tum|ve\-|
w: Ge\-|* ni-|to\- *|ri|ge\-|* ni-|to\- * *|que|laus|
[M:2/2][K:treble-8] d3 d c2 c2 | (B8 | c4) (B2 A2) | !fermata!B8 | c4 c4 | B4 c4 | B4 c4 | d4 ^c4 | %17
w: * por- is my-|ste\-|* ri\- *|um|san- gui-|nis- que|pre- ti-|o- si,|
w: * ne- re- mur|cer\-|* nu\- *|i,|et an-|ti- quum|do- cu-|men- tum|
w: * et ju- bi-|la\-|* ti\- *|o,|sa- lus,|ho- nor,|vir- tus|quo- que|
 z4 d4- | d4 =c4- | c4 B4- | B4 B4 | B6 B2 | !fermata!B8 | c4 c4 | d4 c4 | f4 f4 | %26
w: quem|* in|* mun\-|* di|pre- ti-|um|fru- ctus|ven- tris|ge- ne-|
w: no\-|* vo|* ce\-|* dat|ri- tu-|i:|prae- stet|fi- des|sup- ple-|
w: sit|* et|* be\-|* ne-|di- cti-|o,|pro- ce-|den- ti|ab u-|
 d4 !fermata!^c4 | d4 !courtesy!=c4 | B4 c4 | (f4 d3) d | e4 z4 | z4 e2 e2 | c4 c4 | B4 A4 | %34
w: ro- si,|rex ef-|fu- dit|gen\- * ti-|um,|rex ef-|fu- dit|gen- ti-|
w: men- tum|sen- su-|um de-|fe\- * ctu-|i,|sen- su-|um de-|fe- ctu-|
w: tro- que|com- par|sit lau-|da\- * ti-|o,|com- par|sit lau-|da- ti-|
 !fermata!^G8 || (c8 | E4 ^F4) | !fermata!^G8 |] %38
w: um.||||
w: i.|A\-||men.|
w: o.||||
V:4
 z8 | z4 E,4- | E,4 E,4 | E,4 E,4 | z4 (C,4 | A,,4) A,,4 | (G,,4 F,,4) | G,,4 z4 | z8 | %9
w: |Pan\-|* ge|lin- gua|glo\-|* ri-|o\- *|si||
w: |Tan\-|* tum|er- go|sa\-|* cra-|men\- *|tum||
w: |Ge\-|* ni-|to- ri|ge\-|* ni-|to\- *|que||
[M:2/2] A,3 A, A,2 A,2 | (A,4 G,4 | F,6) F,2 | !fermata!E,8 | C,4 C,4 | G,4 E,4 | G,4 F,4 | %16
w: cor- po- ris my-|ste\- *|* ri-|um|san- gui-|nis- que|pre- ti-|
w: ve- ne- re- mur|cer\- *|* nu-|i,|et an-|ti- quum|do- cu-|
w: laus et ju- bi-|la\- *|* ti-|o,|sa- lus,|ho- nor,|vir- tus|
 D,4 A,4 | z8 | z8 | ^F,6 F,2 | ^F,4 E,4 | B,,6 B,,2 | !fermata![E,,E,]8 | A,4 F,4 | _B,,4 F,4 | %25
w: o- si,|||quem in|mun- di|pre- ti-|um|fru- ctus|ven- tris|
w: men- tum|||no- vo|ce- dat|ri- tu-|i:|prae- stet|fi- des|
w: quo- que|||sit et|be- ne-|di- cti-|o,|pro- ce-|den- ti|
 D,4 D4 | ^G,4 !fermata!A,4 | D,4 (E,2 F,2) | G,4 A,4 | (F,4 G,3) G, | C,4 z4 | z8 | z4 (E,4 | %33
w: ge- ne-|ro- si,|rex ef\- *|fu- dit|gen\- * ti-|um,||gen\-|
w: sup- ple-|men- tum|sen- su\- *|um de-|fe\- * ctu-|i,||de-|
w: ab u-|tro- que|com- par *|sit lau-|da\- * ti-|o,||lau-|
 E,4) E,4 | !fermata!E,,8 || [A,,E,]8- | [A,,E,]8 | !fermata![E,,E,]8 |] %38
w: * ti-|um.||||
w: fe- ctu-|i.|A\-||men.|
w: da- ti-|o.||||

